assets/spriteSVG/sales-search-empty.svg

<svg viewBox="0 0 233 211" xmlns="http://www.w3.org/2000/svg">
<rect x="5" y="44.459" width="79.0471" height="77.7126" rx="12" transform="rotate(-15 5 44.459)" fill="#F7F7F8"/>
<path d="M52.1513 59.6414C46.7723 58.4842 42.3665 57.5187 42.3603 57.4958L46.3297 53.9968C47.2682 53.1695 48.5397 52.829 49.7661 53.0765L58.3029 54.7993L66.2003 56.4082C67.6862 56.7109 68.8732 57.8279 69.2656 59.2927L71.336 67.0219L73.4231 74.8057C73.8152 76.2681 73.348 77.8266 72.2161 78.8321L65.8226 84.5117L59.554 90.0333C58.6118 90.8633 57.3346 91.2026 56.1047 90.9498L47.765 89.2355L39.8123 87.6114C38.3358 87.3099 37.1547 86.2061 36.7593 84.752C36.2267 82.7936 35.4283 79.8424 34.6092 76.7592C33.8135 73.7639 33.0824 71.0384 32.5906 69.2104C32.2029 67.7697 32.6474 66.2336 33.745 65.2232L38.5014 60.8444L48.4859 63.0149L58.4704 65.1856L59.7183 69.8326C61.0809 74.9072 61.0866 74.9394 61.0866 74.9394L64.8718 71.6844C64.8718 71.6844 64.7448 71.1974 63.5452 66.7205L62.235 61.8306C62.235 61.8306 57.5302 60.7986 52.1513 59.6414Z" fill="#D9DCE0"/>
<g filter="url(#filter0_d_4024_202)">
<rect width="78.9581" height="77.8024" rx="12" transform="matrix(0.966065 0.258314 -0.266529 0.963831 99 38)" fill="white"/>
<path fill-rule="evenodd" clip-rule="evenodd" d="M138.698 91.9698C140.729 88.9191 141.835 85.2146 141.64 81.2731C141.156 71.487 132.831 63.9462 123.045 64.4303C113.258 64.9143 105.718 73.24 106.202 83.0261C106.686 92.8122 115.011 100.353 124.798 99.869C128.115 99.7049 131.174 98.6397 133.75 96.922L141.258 104.43C142.625 105.796 144.841 105.796 146.208 104.43C147.575 103.063 147.575 100.847 146.208 99.4798L138.698 91.9698ZM134.649 81.619C134.356 75.6941 129.315 71.1286 123.39 71.4217C117.466 71.7148 112.9 76.7554 113.193 82.6803C113.486 88.6051 118.527 93.1706 124.452 92.8775C126.933 92.7548 129.175 91.7997 130.923 90.2957C131.063 90.0671 131.233 89.8511 131.431 89.6529C131.628 89.4557 131.843 89.2869 132.071 89.1466C133.8 87.1331 134.79 84.4791 134.649 81.619Z" fill="#4395FD"/>
</g>
<defs>
<filter id="filter0_d_4024_202" x="21.0273" y="0.689453" width="211.488" height="210.006" filterUnits="userSpaceOnUse" color-interpolation-filters="sRGB">
<feFlood flood-opacity="0" result="BackgroundImageFix"/>
<feColorMatrix in="SourceAlpha" type="matrix" values="0 0 0 0 0 0 0 0 0 0 0 0 0 0 0 0 0 0 127 0" result="hardAlpha"/>
<feOffset dy="20"/>
<feGaussianBlur stdDeviation="30"/>
<feComposite in2="hardAlpha" operator="out"/>
<feColorMatrix type="matrix" values="0 0 0 0 0.403922 0 0 0 0 0.462745 0 0 0 0 0.54902 0 0 0 0.16 0"/>
<feBlend mode="normal" in2="BackgroundImageFix" result="effect1_dropShadow_4024_202"/>
<feBlend mode="normal" in="SourceGraphic" in2="effect1_dropShadow_4024_202" result="shape"/>
</filter>
</defs>
</svg>

<svg viewBox="0 0 233 211" xmlns="http://www.w3.org/2000/svg">
  <rect x="5" y="44.459" width="79.047" height="77.713" rx="12" transform="rotate(-15 5 44.459)" fill="#F7F7F8"/>
  <path d="M52.151 59.641c-5.379-1.157-9.785-2.122-9.79-2.145l3.969-3.5a4 4 0 0 1 3.436-.92l8.537 1.723 7.897 1.61a4 4 0 0 1 3.066 2.884l2.07 7.729 2.087 7.784a4 4 0 0 1-1.207 4.026l-6.393 5.68-6.269 5.521a4 4 0 0 1-3.45.917l-8.339-1.715-7.953-1.624a3.987 3.987 0 0 1-3.053-2.859c-.532-1.958-1.33-4.91-2.15-7.993a2521.36 2521.36 0 0 0-2.018-7.549 4.004 4.004 0 0 1 1.154-3.987l4.756-4.379 9.985 2.17 9.984 2.172 1.248 4.647c1.363 5.074 1.369 5.106 1.369 5.106l3.785-3.255s-.127-.487-1.327-4.963l-1.31-4.89s-4.705-1.032-10.084-2.19Z" fill="#D9DCE0"/>
  <g filter="url(#a)">
    <rect width="78.958" height="77.802" rx="12" transform="matrix(.96606 .25831 -.26653 .96383 99 38)" fill="#fff"/>
    <path fill-rule="evenodd" clip-rule="evenodd" d="M138.698 91.97a17.66 17.66 0 0 0 2.942-10.697c-.484-9.786-8.809-17.327-18.595-16.843-9.787.484-17.327 8.81-16.843 18.596.484 9.786 8.809 17.327 18.596 16.843a17.656 17.656 0 0 0 8.952-2.947l7.508 7.508a3.5 3.5 0 1 0 4.95-4.95l-7.51-7.51Zm-4.049-10.351c-.293-5.925-5.334-10.49-11.259-10.197-5.924.293-10.49 5.333-10.197 11.258.293 5.925 5.334 10.49 11.259 10.197a10.696 10.696 0 0 0 6.471-2.581 3.489 3.489 0 0 1 1.148-1.15 10.707 10.707 0 0 0 2.578-7.527Z" fill="#4395FD"/>
  </g>
  <defs>
    <filter id="a" x="21.027" y=".689" width="211.488" height="210.006" filterUnits="userSpaceOnUse" color-interpolation-filters="sRGB">
      <feFlood flood-opacity="0" result="BackgroundImageFix"/>
      <feColorMatrix in="SourceAlpha" values="0 0 0 0 0 0 0 0 0 0 0 0 0 0 0 0 0 0 127 0" result="hardAlpha"/>
      <feOffset dy="20"/>
      <feGaussianBlur stdDeviation="30"/>
      <feComposite in2="hardAlpha" operator="out"/>
      <feColorMatrix values="0 0 0 0 0.403922 0 0 0 0 0.462745 0 0 0 0 0.54902 0 0 0 0.16 0"/>
      <feBlend in2="BackgroundImageFix" result="effect1_dropShadow_4024_202"/>
      <feBlend in="SourceGraphic" in2="effect1_dropShadow_4024_202" result="shape"/>
    </filter>
  </defs>
</svg>
